src/assets/acar-icons/arrow--next.svg

<?xml version="1.0" encoding="UTF-8" standalone="no"?>
<!-- Created with Inkscape (http://www.inkscape.org/) -->

<svg
   xmlns:dc="http://purl.org/dc/elements/1.1/"
   xmlns:cc="http://creativecommons.org/ns#"
   xmlns:rdf="http://www.w3.org/1999/02/22-rdf-syntax-ns#"
   xmlns:svg="http://www.w3.org/2000/svg"
   xmlns="http://www.w3.org/2000/svg"
   xmlns:sodipodi="http://sodipodi.sourceforge.net/DTD/sodipodi-0.dtd"
   xmlns:inkscape="http://www.inkscape.org/namespaces/inkscape"
   width="18.791172mm"
   height="9.0311108mm"
   viewBox="0 0 66.582893 31.999999"
   id="svg6665"
   version="1.1"
   inkscape:version="0.91 r13725"
   sodipodi:docname="arrow--next.svg">
  <defs
     id="defs6667" />
  <sodipodi:namedview
     id="base"
     pagecolor="#ffffff"
     bordercolor="#666666"
     borderopacity="1.0"
     inkscape:pageopacity="0.0"
     inkscape:pageshadow="2"
     inkscape:zoom="8.9313753"
     inkscape:cx="30.043501"
     inkscape:cy="14.648647"
     inkscape:document-units="px"
     inkscape:current-layer="g5200-2"
     showgrid="false"
     showguides="true"
     inkscape:guide-bbox="true"
     fit-margin-top="0"
     fit-margin-left="0"
     fit-margin-right="0"
     fit-margin-bottom="0"
     inkscape:window-width="1366"
     inkscape:window-height="705"
     inkscape:window-x="0"
     inkscape:window-y="30"
     inkscape:window-maximized="1" />
  <metadata
     id="metadata6670">
    <rdf:RDF>
      <cc:Work
         rdf:about="">
        <dc:format>image/svg+xml</dc:format>
        <dc:type
           rdf:resource="http://purl.org/dc/dcmitype/StillImage" />
        <dc:title />
      </cc:Work>
    </rdf:RDF>
  </metadata>
  <g
     inkscape:label="Layer 1"
     inkscape:groupmode="layer"
     id="layer1"
     transform="translate(-264.36909,-226.60475)">
    <g
       transform="matrix(1.3945609,0,0,1.3945609,-4764.2478,-1079.1207)"
       id="g5200-2">
      <path
         style="color:#000000;clip-rule:nonzero;display:inline;overflow:visible;visibility:visible;opacity:1;isolation:auto;mix-blend-mode:normal;color-interpolation:sRGB;color-interpolation-filters:linearRGB;solid-color:#000000;solid-opacity:1;fill:#233f7d;fill-opacity:1;fill-rule:evenodd;stroke:none;stroke-width:0.9177345px;stroke-linecap:butt;stroke-linejoin:miter;stroke-miterlimit:4;stroke-dasharray:none;stroke-dashoffset:0;stroke-opacity:1;color-rendering:auto;image-rendering:auto;shape-rendering:auto;text-rendering:auto;enable-background:accumulate"
         d="M 50.642578 0.060546875 L 50.642578 7.1308594 L 57.011719 13.5 L 0 13.5 L 0 18.5 L 57.011719 18.5 L 50.642578 24.869141 L 50.642578 31.939453 L 63.046875 19.535156 L 66.582031 16 L 63.046875 12.464844 L 50.642578 0.060546875 z "
         transform="matrix(0.71707159,0,0,0.71707159,3605.8783,936.29862)"
         id="rect4139" />
    </g>
  </g>
</svg>

<svg xmlns="http://www.w3.org/2000/svg" width="71.022" height="34.133" viewBox="0 0 66.583 32"><path style="isolation:auto;mix-blend-mode:normal;solid-color:#000;solid-opacity:1" d="M50.643.06v7.07l6.369 6.37H0v5h57.012l-6.37 6.37v7.07l12.405-12.405L66.582 16l-3.535-3.535L50.643.06z" color="#000" overflow="visible" fill="#233f7d" fill-rule="evenodd"/></svg>
